projects/packages/backup/src/js/components/icons/group-work.svg

<svg fill="none" height="32" viewBox="0 0 33 32" width="33" xmlns="http://www.w3.org/2000/svg" xmlns:xlink="http://www.w3.org/1999/xlink"><mask id="a" height="18" maskUnits="userSpaceOnUse" width="17" x="8" y="7"><path clip-rule="evenodd" d="m16.4998 7.6665c-4.6 0-8.3333 3.7333-8.3333 8.3333s3.7333 8.3334 8.3333 8.3334 8.3334-3.7334 8.3334-8.3334-3.7334-8.3333-8.3334-8.3333zm0 15c-3.675 0-6.66663-2.9917-6.66663-6.6667s2.99163-6.66663 6.66663-6.66663 6.6667 2.99163 6.6667 6.66663-2.9917 6.6667-6.6667 6.6667zm-5-5c0-.9205.7462-1.6667 1.6667-1.6667s1.6667.7462 1.6667 1.6667-.7462 1.6667-1.6667 1.6667-1.6667-.7462-1.6667-1.6667zm5-6.6667c-.9204 0-1.6666.7462-1.6666 1.6667s.7462 1.6667 1.6666 1.6667c.9205 0 1.6667-.7462 1.6667-1.6667s-.7462-1.6667-1.6667-1.6667zm1.6667 6.6667c0-.9205.7462-1.6667 1.6667-1.6667.9204 0 1.6666.7462 1.6666 1.6667s-.7462 1.6667-1.6666 1.6667c-.9205 0-1.6667-.7462-1.6667-1.6667z" fill="#fff" fill-rule="evenodd"/></mask><rect fill="#008710" height="32" rx="4" width="32" x=".5"/><g mask="url(#a)"><path d="m6.5 6h20v20h-20z" fill="#fff"/></g></svg>

<svg width="33" height="32" viewBox="0 0 33 32" fill="none" xmlns="http://www.w3.org/2000/svg">
<rect x="0.5" width="32" height="32" rx="4" fill="#008710"/>
<mask id="mask0_3026_4960" style="mask-type:luminance" maskUnits="userSpaceOnUse" x="8" y="7" width="17" height="18">
<path fill-rule="evenodd" clip-rule="evenodd" d="M16.4998 7.6665C11.8998 7.6665 8.1665 11.3998 8.1665 15.9998C8.1665 20.5998 11.8998 24.3332 16.4998 24.3332C21.0998 24.3332 24.8332 20.5998 24.8332 15.9998C24.8332 11.3998 21.0998 7.6665 16.4998 7.6665ZM16.4998 22.6665C12.8248 22.6665 9.83317 19.6748 9.83317 15.9998C9.83317 12.3248 12.8248 9.33317 16.4998 9.33317C20.1748 9.33317 23.1665 12.3248 23.1665 15.9998C23.1665 19.6748 20.1748 22.6665 16.4998 22.6665ZM11.4998 17.6665C11.4998 16.746 12.246 15.9998 13.1665 15.9998C14.087 15.9998 14.8332 16.746 14.8332 17.6665C14.8332 18.587 14.087 19.3332 13.1665 19.3332C12.246 19.3332 11.4998 18.587 11.4998 17.6665ZM16.4998 10.9998C15.5794 10.9998 14.8332 11.746 14.8332 12.6665C14.8332 13.587 15.5794 14.3332 16.4998 14.3332C17.4203 14.3332 18.1665 13.587 18.1665 12.6665C18.1665 11.746 17.4203 10.9998 16.4998 10.9998ZM18.1665 17.6665C18.1665 16.746 18.9127 15.9998 19.8332 15.9998C20.7536 15.9998 21.4998 16.746 21.4998 17.6665C21.4998 18.587 20.7536 19.3332 19.8332 19.3332C18.9127 19.3332 18.1665 18.587 18.1665 17.6665Z" fill="white"/>
</mask>
<g mask="url(#mask0_3026_4960)">
<rect x="6.5" y="6" width="20" height="20" fill="white"/>
</g>
</svg>
